images_sukapura_svg/cmd/sc_footnotedialog.svg

<svg viewBox="0 0 16 16" xmlns="http://www.w3.org/2000/svg" xmlns:xlink="http://www.w3.org/1999/xlink"><linearGradient id="a" gradientUnits="userSpaceOnUse" x1="10" x2="10" y1="16" y2="-2"><stop offset="0" stop-color="#f7f7f7"/><stop offset=".22222222" stop-color="#fff"/><stop offset=".83333331" stop-color="#fff"/><stop offset="1" stop-color="#f7f7f7"/></linearGradient><linearGradient id="b" gradientTransform="matrix(1 0 0 .53846154 -6 5.307692)" gradientUnits="userSpaceOnUse" x1="12" x2="12" y1="18" y2="5"><stop offset="0" stop-color="#cfcfcf"/><stop offset=".15476191" stop-color="#e7e7e7"/><stop offset=".15476191" stop-color="#fff"/><stop offset=".5" stop-color="#f3f3f3"/><stop offset=".85714287" stop-color="#f9f9f9"/><stop offset=".85714287" stop-color="#fcfcfc"/><stop offset="1" stop-color="#fff"/></linearGradient><linearGradient id="c" gradientTransform="matrix(1 0 0 .39999999 -6 6.7)" gradientUnits="userSpaceOnUse" x1="12" x2="12" y1="12" y2="18.250002"><stop offset="0" stop-color="#f8f8f8"/><stop offset="1" stop-color="#fff"/></linearGradient><path d="m3 1v14h7.304688 2.695312v-.75-1.955078-1.769531-1.0761722l-.408203.3261718a1.0001 1.0001 0 0 1 -.013672.0117188c-.076122.0586703-.168592.1113626-.269531.1582031l-1.951172-1.6328125a1.0001 1.0001 0 0 1 -.248047-.3125 1.0001 1.0001 0 0 1 .248047-.3125l1.951172-1.6328125c.10094.0468404.193409.0995328.269531.1582031a1.0001 1.0001 0 0 1 .013672.0117188l.408203.3261718v-1.0761718-1.7695313-1.9550781-.75h-2.695312z" fill="#fff"/><path d="m3 0c-.1070341 0-.2047472.02609895-.2988281.06054688-.0661904.02094427-.1261843.04656713-.1855469.08007812-.0007459.00042212-.001208.00152979-.0019531.00195312-.3021531.17166833-.5136719.48370594-.5136719.85742188v14c0 .554.446 1 1 1h2 1.0292969 2.9433593 2.0273438 2c.180284 0 .340567-.059764.486328-.142578a1.0001 1.0001 0 0 1 -.486328-.857422h-10v-14h6 2.363281 1.636719v1.6367188 1.3632812 1 .4746094l.287109-.2402344a1.0001 1.0001 0 0 1 .642579-.234375h.070312v-.5-.8632812-2.6367188c0-.554-.446-1-1-1h-2-.636719-.3925779-.4707031z" fill="#98989d"/><path d="m14 14.25v-6.8792876l-2.032827 1.6234428c-.118128.091047-.233794.1229138-.347001.0956-.108284-.0318679-.184574-.0773892-.228873-.1365709l-.391299-.4984823 2.929733-2.454702h2.070267v8.25.75h-2z" fill="#d70015"/><g transform="matrix(-1 0 0 1 16 0)"><path d="m9 6v10h3v-4h2v-6z" fill="#fff" fill-opacity=".784314"/><g transform="translate(8)"><path d="m2 8h6v8h-6z" fill="url(#a)"/><path d="m2 7h6v9h-6z" fill="#626262" stroke-width=".774597"/><path d="m3 8h4v7h-4z" fill="url(#b)" stroke-width=".733799"/><path d="m4 9h2v2.5h-2z" fill="#dadada" stroke-width=".912871"/><path d="m4 11.5h2v2.5h-2z" fill="url(#c)" stroke-width=".632456"/></g></g></svg>

<?xml version="1.0" encoding="UTF-8" standalone="no"?>
<svg
   xmlns:dc="http://purl.org/dc/elements/1.1/"
   xmlns:cc="http://creativecommons.org/ns#"
   xmlns:rdf="http://www.w3.org/1999/02/22-rdf-syntax-ns#"
   xmlns:svg="http://www.w3.org/2000/svg"
   xmlns="http://www.w3.org/2000/svg"
   xmlns:sodipodi="http://sodipodi.sourceforge.net/DTD/sodipodi-0.dtd"
   xmlns:inkscape="http://www.inkscape.org/namespaces/inkscape"
   viewBox="0 0 16 16"
   version="1.1"
   id="svg8"
   sodipodi:docname="sc_footnotedialog.svg"
   inkscape:version="0.92.3 (unknown)">
  <metadata
     id="metadata14">
    <rdf:RDF>
      <cc:Work
         rdf:about="">
        <dc:format>image/svg+xml</dc:format>
        <dc:type
           rdf:resource="http://purl.org/dc/dcmitype/StillImage" />
        <dc:title></dc:title>
      </cc:Work>
    </rdf:RDF>
  </metadata>
  <defs
     id="defs12">
    <linearGradient
       gradientTransform="translate(-1,-5)"
       id="a-2"
       gradientUnits="userSpaceOnUse"
       x1="11"
       x2="11"
       y1="21"
       y2="3">
      <stop
         offset="0"
         stop-color="#f7f7f7"
         id="stop2-2" />
      <stop
         offset=".22222222"
         stop-color="#fff"
         id="stop4-9" />
      <stop
         offset=".83333331"
         stop-color="#fff"
         id="stop6-3" />
      <stop
         offset="1"
         stop-color="#f7f7f7"
         id="stop8-6" />
    </linearGradient>
    <linearGradient
       gradientTransform="matrix(1,0,0,0.53846154,-6,5.3076923)"
       id="b-3"
       gradientUnits="userSpaceOnUse"
       x1="12"
       x2="12"
       y1="18"
       y2="5">
      <stop
         offset="0"
         stop-color="#cfcfcf"
         id="stop11-6" />
      <stop
         offset="0.15476191"
         stop-color="#e7e7e7"
         id="stop13-7" />
      <stop
         offset="0.15476191"
         stop-color="#fff"
         id="stop15" />
      <stop
         offset=".5"
         stop-color="#f3f3f3"
         id="stop17" />
      <stop
         offset="0.85714287"
         stop-color="#f9f9f9"
         id="stop19" />
      <stop
         offset="0.85714287"
         stop-color="#fcfcfc"
         id="stop21" />
      <stop
         offset="1"
         stop-color="#fff"
         id="stop23" />
    </linearGradient>
    <linearGradient
       gradientTransform="matrix(1,0,0,0.39999999,-6,6.6999997)"
       id="c"
       gradientUnits="userSpaceOnUse"
       x1="12"
       x2="12"
       y1="12"
       y2="18.250002">
      <stop
         offset="0"
         stop-color="#f8f8f8"
         id="stop26" />
      <stop
         offset="1"
         stop-color="#fff"
         id="stop28" />
    </linearGradient>
  </defs>
  <sodipodi:namedview
     pagecolor="#ffffff"
     bordercolor="#666666"
     borderopacity="1"
     objecttolerance="10"
     gridtolerance="10"
     guidetolerance="10"
     inkscape:pageopacity="0"
     inkscape:pageshadow="2"
     inkscape:window-width="1366"
     inkscape:window-height="706"
     id="namedview10"
     showgrid="true"
     inkscape:zoom="7.375"
     inkscape:cx="27.30372"
     inkscape:cy="3.2084425"
     inkscape:window-x="0"
     inkscape:window-y="0"
     inkscape:window-maximized="1"
     inkscape:current-layer="svg8">
    <inkscape:grid
       type="xygrid"
       id="grid814" />
  </sodipodi:namedview>
  <path
     d="m3 1v14h7.304688 2.695312v-.75-1.955078-1.769531-1.0761722l-.408203.3261718a1.0001 1.0001 0 0 1 -.013672.0117188c-.076122.0586703-.168592.1113626-.269531.1582031l-1.951172-1.6328125a1.0001 1.0001 0 0 1 -.248047-.3125 1.0001 1.0001 0 0 1 .248047-.3125l1.951172-1.6328125c.10094.0468404.193409.0995328.269531.1582031a1.0001 1.0001 0 0 1 .013672.0117188l.408203.3261718v-1.0761718-1.7695313-1.9550781-.75h-2.695312z"
     fill="#fff"
     id="path2" />
  <path
     d="m3 0c-.1070341 0-.2047472.02609895-.2988281.06054688-.0661904.02094427-.1261843.04656713-.1855469.08007812-.0007459.00042212-.001208.00152979-.0019531.00195312-.3021531.17166833-.5136719.48370594-.5136719.85742188v14c0 .554.446 1 1 1h2 1.0292969 2.9433593 2.0273438 2c.180284 0 .340567-.059764.486328-.142578a1.0001 1.0001 0 0 1 -.486328-.857422h-10v-14h6 2.363281 1.636719v1.6367188 1.3632812 1 .4746094l.287109-.2402344a1.0001 1.0001 0 0 1 .642579-.234375h.070312v-.5-.8632812-2.6367188c0-.554-.446-1-1-1h-2-.636719-.3925779-.4707031z"
     fill="#98989d"
     id="path4" />
  <path
     d="M 14,14.25 V 7.3707124 l -2.032827,1.6234428 c -0.118128,0.091047 -0.233794,0.1229138 -0.347001,0.0956 C 11.511888,9.0578873 11.435598,9.012366 11.391299,8.9531843 L 11,8.454702 13.929733,6 H 16 V 14.25 15 h -2 z"
     id="path6"
     style="fill:#d70015;fill-opacity:1"
     inkscape:connector-curvature="0"
     sodipodi:nodetypes="cccccccccccc" />
  <g
     id="g1642"
     transform="matrix(-1,0,0,1,16,0)">
    <path
       id="rect1628"
       d="m 9,6 v 10 h 3 v -4 h 2 V 6 Z"
       style="opacity:1;fill:#ffffff;fill-opacity:0.78431373;stroke:none;stroke-width:1;stroke-linecap:round;stroke-linejoin:round;stroke-miterlimit:4;stroke-dasharray:none;stroke-opacity:0"
       inkscape:connector-curvature="0" />
    <g
       transform="translate(8)"
       id="g937">
      <path
         sodipodi:nodetypes="ccccc"
         inkscape:connector-curvature="0"
         style="fill:url(#a-2)"
         d="m 2,8 h 6 v 8 H 2 Z"
         id="path31" />
      <path
         sodipodi:nodetypes="ccccc"
         inkscape:connector-curvature="0"
         style="fill:#626262;stroke-width:0.77459669"
         d="m 2,7 h 6 v 9 H 2 Z"
         id="path35" />
      <path
         sodipodi:nodetypes="ccccc"
         inkscape:connector-curvature="0"
         style="fill:url(#b-3);stroke-width:0.7337994"
         d="m 3,8 h 4 v 7 H 3 Z"
         id="path37" />
      <path
         sodipodi:nodetypes="ccccc"
         inkscape:connector-curvature="0"
         style="fill:#dadada;stroke-width:0.91287094"
         d="m 4,9 h 2 v 2.5 H 4 Z"
         id="path39" />
      <path
         sodipodi:nodetypes="ccccc"
         inkscape:connector-curvature="0"
         style="fill:url(#c);stroke-width:0.63245553"
         d="M 4,11.5 H 6 V 14 H 4 Z"
         id="path41" />
      <g
         transform="translate(-2,-6)"
         style="fill:#a2a2a7"
         id="g51" />
    </g>
  </g>
</svg>
